apps/site/public/icons/companies/about/amplify.svg

<svg xmlns="http://www.w3.org/2000/svg" fill="none" viewBox="0 0 124 35" height="35" width="124">
<path fill="white" d="M79.2557 0.172028H74.7236V25.9112H79.2557V0.172028Z"></path>
<path fill="white" d="M87.8094 6.90202H83.2773V25.9111H87.8094V6.90202Z"></path>
<path fill="white" d="M87.8094 0.259521H83.2773V4.43842H87.8094V0.259521Z"></path>
<path fill="white" d="M12.1206 0.687103H8.0656L0.101562 25.9112H4.63366L12.1206 0.687103Z"></path>
<path fill="white" d="M14.482 0.818294L14.4382 0.687096H13.2602L11.5223 6.46467L14.6573 16.2803H8.57716L7.29688 20.5271H16.0155L17.7387 25.9111H22.4071L14.482 0.818294Z"></path>
<path fill="white" d="M49.9462 8.35489C48.812 7.08179 47.1713 6.43554 45.0782 6.43554C43.8662 6.42141 42.6704 6.71397 41.6025 7.2859C40.7283 7.75716 39.9739 8.42205 39.3972 9.22956C38.9347 8.46665 38.2994 7.82259 37.5424 7.34906C36.455 6.70817 35.2072 6.3896 33.9451 6.43067C32.7164 6.41682 31.5042 6.71262 30.4206 7.29072C30.2843 7.36361 30.1577 7.44625 30.0264 7.52885V11.6835C30.0642 11.6311 30.1048 11.5809 30.1479 11.5328C30.4497 11.1895 30.8256 10.9188 31.2471 10.7412C31.6687 10.5636 32.1251 10.4837 32.5821 10.5075C33.0386 10.4866 33.4941 10.5678 33.9154 10.7452C34.3365 10.9226 34.7125 11.1917 35.016 11.5328C35.6656 12.361 35.9879 13.3986 35.9215 14.4483V25.9063H40.439V14.2443C40.421 13.5415 40.5729 12.8448 40.882 12.2131C41.15 11.6841 41.5637 11.2424 42.0747 10.94C42.5963 10.6487 43.1856 10.4996 43.7832 10.5075C44.2392 10.4847 44.6945 10.564 45.1156 10.7398C45.5369 10.9155 45.9133 11.1832 46.2172 11.5231C46.8631 12.3383 47.1855 13.3623 47.1228 14.3997V25.9063H51.6549V13.3502C51.7305 11.5305 51.1209 9.74841 49.9462 8.35489Z"></path>
<path fill="white" d="M28.9118 6.90202H24.6426V25.9111H28.9118V6.90202Z"></path>
<path fill="white" d="M58.4359 6.90202H54.3906V34.1961H58.4359V6.90202Z"></path>
<path fill="white" d="M71.2047 11.2753C70.5196 9.82745 69.4549 8.59166 68.1232 7.69891C66.7244 6.80538 65.091 6.34701 63.4305 6.38206C62.0769 6.35149 60.7374 6.66238 59.5362 7.2859V12.043C59.7565 11.7302 60.0224 11.4518 60.3247 11.217C61.0476 10.7042 61.9216 10.4476 62.8074 10.4881C63.7554 10.4503 64.6896 10.7252 65.4653 11.2704C66.1752 11.8159 66.7113 12.5552 67.0086 13.3987C67.352 14.367 67.5168 15.3894 67.4953 16.4163C67.5123 17.4493 67.3476 18.4771 67.0086 19.4534C66.7197 20.2882 66.1978 21.0234 65.5042 21.5719C64.7576 22.1081 63.8531 22.38 62.9339 22.3445C62.0121 22.3884 61.1013 22.1306 60.3393 21.6108C60.026 21.3807 59.7501 21.1038 59.5215 20.7895V25.5078C60.7706 26.1569 62.1641 26.4794 63.5718 26.4457C65.2029 26.4791 66.8055 26.0163 68.1671 25.1192C69.4873 24.2196 70.5375 22.9782 71.2047 21.5282C71.9198 19.9168 72.2892 18.1739 72.2892 16.4115C72.2892 14.649 71.9198 12.9061 71.2047 11.2947V11.2753Z"></path>
<path fill="white" d="M102.647 6.90202H99.2295V10.527H102.647V6.90202Z"></path>
<path fill="white" d="M100.125 0.172071C99.6725 0.172071 99.1517 0.17208 98.5432 0.210953C97.9007 0.247915 97.2674 0.38058 96.6642 0.604547C95.9736 0.875335 95.3591 1.30877 94.8728 1.86792C94.4427 2.32371 94.1274 2.87499 93.9526 3.47632C93.7878 4.04321 93.6865 4.62667 93.6509 5.21591C93.6168 5.78445 93.5974 6.31409 93.5974 6.79029V6.90204H90.5889V10.527H93.5974V25.9112H98.1294V5.89136C98.1129 5.62503 98.1515 5.35814 98.2428 5.10733C98.334 4.85654 98.4761 4.62721 98.6601 4.43359C98.883 4.23789 99.1431 4.08918 99.425 3.99649C99.707 3.9038 100.005 3.86901 100.301 3.89419H102.642V0.147781L100.125 0.172071Z"></path>
<path fill="white" d="M118.772 6.90202L113.822 19.9198L113.817 19.9053L110.998 27.3106L108.486 34.1961H112.78L123.236 7.14985L123.334 6.90202H118.772Z"></path>
<path fill="white" d="M113.223 18.3892L108.778 7.01865L108.735 6.90202H103.998L111.032 24.1521L113.223 18.3892Z"></path>
</svg>

<svg xmlns="http://www.w3.org/2000/svg" width="124" height="35" fill="none" viewBox="0 0 124 35"><path fill="#fff" d="M79.256.172h-4.532v25.74h4.532zm8.554 6.73h-4.533v19.01h4.532zm0-6.642h-4.533v4.178h4.532zM12.12.687H8.067L.102 25.911h4.532zm2.362.131-.044-.13H13.26l-1.738 5.777 3.135 9.815h-6.08l-1.28 4.247h8.718l1.724 5.384h4.668zm35.464 7.537c-1.134-1.273-2.775-1.92-4.868-1.92a7.2 7.2 0 0 0-3.476.85 6.5 6.5 0 0 0-2.205 1.945 5.7 5.7 0 0 0-1.855-1.88 6.66 6.66 0 0 0-3.597-.92 7.3 7.3 0 0 0-3.524.86c-.137.074-.263.156-.395.239v4.155q.057-.08.122-.151a3.03 3.03 0 0 1 2.434-1.025 3.07 3.07 0 0 1 2.434 1.025c.65.828.972 1.866.906 2.915v11.458h4.517V14.244c-.018-.703.134-1.4.443-2.03a3.1 3.1 0 0 1 1.193-1.274 3.4 3.4 0 0 1 1.708-.432 3.06 3.06 0 0 1 2.434 1.015c.646.815.968 1.84.906 2.877v11.506h4.532V13.35a7.28 7.28 0 0 0-1.709-4.995M28.912 6.902h-4.27v19.01h4.27zm29.524 0H54.39v27.294h4.045zm12.769 4.373A8.9 8.9 0 0 0 68.123 7.7a8.4 8.4 0 0 0-4.693-1.317 8.06 8.06 0 0 0-3.894.904v4.757a3.8 3.8 0 0 1 .789-.826 3.98 3.98 0 0 1 2.482-.729 4.32 4.32 0 0 1 2.658.782A4.6 4.6 0 0 1 67.01 13.4c.343.968.508 1.99.486 3.017a8.8 8.8 0 0 1-.486 3.037 4.63 4.63 0 0 1-1.505 2.119 4.13 4.13 0 0 1-2.57.773 4.25 4.25 0 0 1-2.595-.734 3.8 3.8 0 0 1-.817-.822v4.719a8.35 8.35 0 0 0 4.05.938 8.05 8.05 0 0 0 4.595-1.327 8.8 8.8 0 0 0 3.038-3.59 12.6 12.6 0 0 0 0-10.234zm31.442-4.373h-3.418v3.625h3.418z"/><path fill="#fff" d="M100.125.172c-.453 0-.973 0-1.582.039a6.5 6.5 0 0 0-1.879.394c-.69.27-1.305.704-1.791 1.263a3.95 3.95 0 0 0-.92 1.608 8 8 0 0 0-.302 1.74 27 27 0 0 0-.054 1.574v.112H90.59v3.625h3.008v15.384h4.532V5.891a1.94 1.94 0 0 1 .531-1.457 2.2 2.2 0 0 1 1.641-.54h2.341V.148zm18.647 6.73-4.95 13.018-.005-.015-2.819 7.406-2.512 6.885h4.294L123.236 7.15l.098-.248zm-5.549 11.488-4.445-11.371-.043-.117h-4.737l7.034 17.25z"/></svg>
